X: 2710
T: Banks Of Lough Gowna, The
R: jig
M: 6/8
K: Bminor
|:~B3 BAF|~A3 AFA|~B3 BAB|d2e fef|
~B3 BAF|~A3 AFA|def afe|fdB ~B3:|
|:def ~a3|bab afe|def ~a3|baf edB|
def ~a3|bab afe|~f3 fef|dBA B3:|

